X:24
T:Carl-Canada
R:jig
C:Paul S. Cranford
O:Cape Breton Island
S:http://www.cranfordpub.com
D:currently unrecorded
B:currently unpublished in book form
Z:psc
H:                                                        copyrights Cranford Publications, SOCAN
L:1/8
Q:300
M:6/8
K:Bdor
z|fec BcA|Bcb a2 e|faf ece|(f/g/a)f ecA|
fec BcA|Bcb a2 e|(f/g/a)f ecA|cBB B2:|
|:z|bae fae|fec afa|baf eaf|ecB A2 A|
[1bae fae|fec a2 e|(f/g/a)f ecA|cBB B2:|
[2fec BcA|Bcb a2 e|(f/g/a)f ecA|cBB B2|]
